;Generated by Cura LulzBot Edition GCodeWriter Version: 3.6.20
;FLAVOR:Marlin
;TIME:9700
;Filament used: 6.66029m
;Layer height: 0.38
;Generated with Cura_SteamEngine 3.6.20
M82 ;absolute extrusion mode
;This G-Code has been generated specifically for the LulzBot TAZ 6 with standard extruder
M73 P0 ; clear GLCD progress bar
M75 ; start GLCD timer
G26 ; clear potential 'probe fail' condition
M107 ; disable fans
M420 S0 ; disable previous leveling matrix
G90 ; absolute positioning
M82 ; set extruder to absolute mode
G92 E0 ; set extruder position to 0
M140 S60.0 ; start bed heating up
M109 R140 ; soften filament before homing Z
G28 ; Home all axis
G1 E-30 F100 ; retract filament
M109 R140 ; wait for extruder to reach wiping temp
G1 X-15 Y100 F3000 ; move above wiper pad
G1 Z1 ; push nozzle into wiper
G1 X-17 Y95 F1000 ; slow wipe
G1 X-17 Y90 F1000 ; slow wipe
G1 X-17 Y85 F1000 ; slow wipe
G1 X-15 Y90 F1000 ; slow wipe
G1 X-17 Y80 F1000 ; slow wipe
G1 X-15 Y95 F1000 ; slow wipe
G1 X-17 Y75 F2000 ; fast wipe
G1 X-15 Y65 F2000 ; fast wipe
G1 X-17 Y70 F2000 ; fast wipe
G1 X-15 Y60 F2000 ; fast wipe
G1 X-17 Y55 F2000 ; fast wipe
G1 X-15 Y50 F2000 ; fast wipe
G1 X-17 Y40 F2000 ; fast wipe
G1 X-15 Y45 F2000 ; fast wipe
G1 X-17 Y35 F2000 ; fast wipe
G1 X-15 Y40 F2000 ; fast wipe
G1 X-17 Y70 F2000 ; fast wipe
G1 X-15 Y30 Z2 F2000 ; fast wipe
G1 X-17 Y35 F2000 ; fast wipe
G1 X-15 Y25 F2000 ; fast wipe
G1 X-17 Y30 F2000 ; fast wipe
G1 X-15 Y25 Z1.5 F1000 ; slow wipe
G1 X-17 Y23 F1000 ; slow wipe
G1 Z10 ; raise extruder
M109 R140 ; wait for extruder to reach probe temp
G1 X-9 Y-9 ; move above first probe point
M204 S100 ; set probing acceleration
G29 ; start auto-leveling sequence
M420 S1 ; activate bed level matrix
M425 Z			     ; use measured Z backlash for compensation
M425 Z F0		     ; turn off measured Z backlash compensation. (if activated in the quality settings, this command will automatically be ignored)
M204 S500 ; restore standard acceleration
G1 X0 Y0 Z15 F5000 ; move up off last probe point
G4 S1 ; pause
M400 ; wait for moves to finish
M117 Heating... ; progress indicator message on LCD
M109 R210 ; wait for extruder to reach printing temp
M190 R60.0 ; wait for bed to reach printing temp
G1 Z2 E0 F75 ; prime tiny bit of filament into the nozzle
M117 TAZ 6 Printing... ; progress indicator message on LCD

M221 S100 T0
G92 E0
G1 F600 E-1.5
;LAYER_COUNT:61
;LAYER:0
M107
G0 F2625 X58.957 Y36.631 Z0.425
;TYPE:SKIRT
G1 F600 E0
G1 F900 X59.288 Y36.243 E0.01699
G1 X59.675 Y35.912 E0.03395
G1 X60.121 Y35.639 E0.05137
G1 X62.364 Y34.504 E0.13511
G1 X67.179 Y31.812 E0.31886
G1 X71.773 Y28.89 E0.50022
G1 X76.831 Y25.237 E0.70805
G1 X77.266 Y24.972 E0.72502
G1 X77.738 Y24.779 E0.742
G1 X78.233 Y24.661 E0.75895
G1 X78.734 Y24.622 E0.77569
G1 X104.12 Y24.623 E1.62131
G1 X104.628 Y24.663 E1.63828
G1 X105.172 Y24.798 E1.65695
G1 X111.437 Y26.94 E1.8775
G1 X116.721 Y28.395 E2.06007
G1 X119.384 Y29.008 E2.15109
G1 X122.025 Y29.536 E2.24081
G1 X127.463 Y30.387 E2.42415
G1 X132.903 Y30.927 E2.60625
G1 X138.362 Y31.158 E2.78826
G1 X143.846 Y31.079 E2.97095
G1 X149.298 Y30.693 E3.15301
G1 X154.736 Y29.996 E3.33563
G1 X160.14 Y28.99 E3.51874
G1 X162.723 Y28.396 E3.60702
G1 X166.954 Y27.26 E3.75295
G1 X167.455 Y27.167 E3.76992
G1 X167.797 Y27.149 E3.78133
G1 X193.184 Y27.15 E4.62698
G1 X193.692 Y27.19 E4.64396
G1 X194.188 Y27.309 E4.66095
G1 X194.658 Y27.504 E4.6779
G1 X195.141 Y27.806 E4.69687
G1 X196.776 Y29.039 E4.76509
G1 X201.308 Y32.193 E4.94901
G1 X205.964 Y35.057 E5.13109
G1 X211.853 Y38.2 E5.35345
G1 X212.283 Y38.474 E5.37043
G1 X212.664 Y38.812 E5.3874
G1 X212.987 Y39.206 E5.40437
G1 X213.246 Y39.645 E5.42135
G1 X213.432 Y40.12 E5.43834
G1 X213.542 Y40.617 E5.4553
G1 X213.573 Y41.067 E5.47032
G1 X213.572 Y59.195 E6.07417
G1 X213.532 Y59.703 E6.09114
G1 X213.413 Y60.199 E6.10814
G1 X213.157 Y60.784 E6.12941
G1 X211.597 Y63.568 E6.23571
G1 X209.139 Y68.446 E6.41766
G1 X206.934 Y73.517 E6.60185
G1 X205.957 Y76.049 E6.69226
G1 X205.064 Y78.588 E6.78191
G1 X203.452 Y83.853 E6.96533
G1 X202.144 Y89.192 E7.14843
G1 X201.606 Y91.864 E7.23922
G1 X201.154 Y94.516 E7.32883
G1 X200.455 Y99.975 E7.51216
G1 X200.069 Y105.427 E7.69422
G1 X199.991 Y110.908 E7.87681
G1 X200.223 Y116.37 E8.05892
G1 X200.762 Y121.8 E8.24068
G1 X201.617 Y127.255 E8.42461
G1 X202.145 Y129.883 E8.5139
G1 X202.757 Y132.546 E8.60492
G1 X204.214 Y137.837 E8.78772
G1 X205.978 Y143.067 E8.97158
G1 X206.934 Y145.548 E9.06014
G1 X207.989 Y148.076 E9.15139
G1 X210.33 Y153.069 E9.33508
G1 X212.93 Y157.883 E9.51733
G1 X216.049 Y162.929 E9.71494
G1 X218.676 Y167.067 E9.8782
G1 X218.818 Y167.314 E9.88769
G1 X220.601 Y170.757 E10.01685
G1 X220.711 Y170.991 E10.02546
G1 X221.965 Y173.971 E10.13316
G1 X222.042 Y174.175 E10.14042
G1 X222.892 Y176.646 E10.22746
G1 X222.959 Y176.866 E10.23512
G1 X223.87 Y180.282 E10.35289
G1 X223.92 Y180.497 E10.36024
G1 X224.428 Y183.104 E10.44872
G1 X224.465 Y183.339 E10.45664
G1 X224.924 Y187.169 E10.58513
G1 X224.944 Y187.424 E10.59365
G1 X225.076 Y190.683 E10.7023
G1 X225.077 Y190.941 E10.71089
G1 X224.94 Y194.46 E10.8282
G1 X224.919 Y194.723 E10.83699
G1 X224.462 Y198.515 E10.96422
G1 X224.421 Y198.768 E10.97275
G1 X223.764 Y202.026 E11.08346
G1 X223.713 Y202.241 E11.09082
G1 X223.021 Y204.771 E11.1782
G1 X222.952 Y204.991 E11.18588
G1 X221.792 Y208.294 E11.30249
G1 X221.711 Y208.502 E11.30992
G1 X220.643 Y210.982 E11.39987
G1 X220.542 Y211.195 E11.40772
G1 X218.774 Y214.599 E11.53549
G1 X218.677 Y214.773 E11.54213
G1 X217.908 Y216.055 E11.59192
G1 X217.805 Y216.216 E11.59829
G1 X215.648 Y219.374 E11.72568
G1 X215.496 Y219.578 E11.73415
G1 X213.454 Y222.116 E11.84266
G1 X213.282 Y222.313 E11.85137
G1 X210.838 Y224.895 E11.9698
G1 X210.681 Y225.05 E11.97715
G1 X208.715 Y226.863 E12.06623
G1 X208.537 Y227.016 E12.07405
G1 X205.552 Y229.393 E12.20116
G1 X205.344 Y229.546 E12.20976
G1 X202.616 Y231.385 E12.31935
G1 X202.396 Y231.521 E12.32796
G1 X199.336 Y233.247 E12.44499
G1 X199.103 Y233.366 E12.45371
G1 X195.64 Y234.967 E12.58079
G1 X195.421 Y235.059 E12.5887
G1 X192.939 Y235.993 E12.67704
G1 X192.738 Y236.061 E12.68411
G1 X189.603 Y237.013 E12.79324
G1 X189.355 Y237.078 E12.80178
G1 X185.945 Y237.826 E12.91807
G1 X185.722 Y237.866 E12.92562
G1 X183.012 Y238.265 E13.01686
G1 X182.779 Y238.291 E13.02467
G1 X179.014 Y238.57 E13.15043
G1 X178.759 Y238.579 E13.15893
G1 X175.467 Y238.564 E13.26859
G1 X175.208 Y238.552 E13.27723
G1 X171.684 Y238.254 E13.39503
G1 X171.424 Y238.222 E13.40376
G1 X167.667 Y237.596 E13.53063
G1 X167.435 Y237.549 E13.53851
G1 X164.877 Y236.929 E13.62619
G1 X164.671 Y236.871 E13.63332
G1 X161.498 Y235.876 E13.74409
G1 X161.253 Y235.788 E13.75276
G1 X157.963 Y234.459 E13.87095
G1 X157.844 Y234.409 E13.87525
G1 X154.311 Y232.817 E14.00433
G1 X151.862 Y231.804 E14.09261
G1 X146.662 Y229.912 E14.27694
G1 X141.429 Y228.337 E14.45897
G1 X136.056 Y227.045 E14.64305
G1 X133.438 Y226.535 E14.7319
G1 X128.015 Y225.709 E14.91462
G1 X122.557 Y225.192 E15.09725
G1 X117.078 Y224.986 E15.27988
G1 X111.629 Y225.088 E15.46142
G1 X106.162 Y225.5 E15.64405
G1 X100.727 Y226.221 E15.82667
G1 X95.345 Y227.248 E16.00919
G1 X92.744 Y227.858 E16.09818
G1 X87.426 Y229.349 E16.28215
G1 X82.098 Y231.154 E16.46954
G1 X81.937 Y231.204 E16.47515
G1 X78.553 Y232.158 E16.59227
G1 X78.339 Y232.211 E16.59961
G1 X75.75 Y232.755 E16.68774
G1 X75.516 Y232.795 E16.69564
G1 X71.748 Y233.303 E16.82229
G1 X71.495 Y233.327 E16.83076
G1 X68.172 Y233.512 E16.94162
G1 X67.914 Y233.516 E16.95021
G1 X64.431 Y233.433 E17.06627
G1 X64.166 Y233.416 E17.07511
G1 X60.301 Y233.007 E17.20458
G1 X60.045 Y232.97 E17.21319
G1 X56.844 Y232.371 E17.32167
G1 X56.629 Y232.323 E17.32901
G1 X54.044 Y231.655 E17.41794
G1 X53.823 Y231.589 E17.42563
G1 X50.471 Y230.464 E17.5434
G1 X50.227 Y230.371 E17.5521
G1 X46.782 Y228.897 E17.67692
G1 X46.551 Y228.788 E17.68543
G1 X43.607 Y227.245 E17.79615
G1 X43.382 Y227.115 E17.8048
G1 X40.384 Y225.224 E17.92287
G1 X40.166 Y225.073 E17.93171
G1 X37.088 Y222.76 E18.05996
G1 X36.889 Y222.599 E18.06848
G1 X34.443 Y220.44 E18.17716
G1 X34.257 Y220.261 E18.18576
G1 X31.822 Y217.741 E18.30249
G1 X31.648 Y217.546 E18.31119
G1 X29.227 Y214.599 E18.43824
G1 X29.072 Y214.395 E18.44677
G1 X27.178 Y211.679 E18.55707
G1 X27.038 Y211.46 E18.56572
G1 X25.269 Y208.433 E18.68251
G1 X25.165 Y208.24 E18.68981
G1 X23.983 Y205.862 E18.77827
G1 X23.886 Y205.648 E18.7861
G1 X22.45 Y202.145 E18.91221
G1 X22.362 Y201.904 E18.92075
G1 X21.349 Y198.744 E19.03129
G1 X21.289 Y198.53 E19.03869
G1 X20.653 Y195.952 E19.12714
G1 X20.605 Y195.724 E19.1349
G1 X20.002 Y192.212 E19.2536
G1 X19.968 Y191.95 E19.2624
G1 X19.632 Y188.179 E19.38851
G1 X19.619 Y187.926 E19.39695
G1 X19.584 Y184.632 E19.50668
G1 X19.592 Y184.373 E19.51531
G1 X19.836 Y180.844 E19.63315
G1 X19.865 Y180.582 E19.64193
G1 X20.436 Y176.805 E19.76917
G1 X20.48 Y176.571 E19.7771
G1 X21.063 Y174.004 E19.86479
G1 X21.116 Y173.8 E19.87181
G1 X22.055 Y170.635 E19.98178
G1 X22.139 Y170.389 E19.99044
G1 X23.406 Y167.105 E20.10769
G1 X23.511 Y166.863 E20.11647
G1 X25.185 Y163.393 E20.24481
G1 X25.306 Y163.166 E20.25338
G1 X26.956 Y160.341 E20.36235
G1 X27.094 Y160.125 E20.37089
G1 X29.107 Y157.23 E20.48835
G1 X29.265 Y157.02 E20.4971
G1 X31.676 Y154.09 E20.62349
G1 X31.84 Y153.906 E20.6317
G1 X36.083 Y149.48 E20.83594
G1 X39.696 Y145.371 E21.0182
G1 X43.082 Y141.05 E21.20106
G1 X46.204 Y136.565 E21.38309
G1 X49.071 Y131.906 E21.56531
G1 X51.67 Y127.092 E21.74755
G1 X54.009 Y122.102 E21.93112
G1 X55.032 Y119.658 E22.01937
G1 X56.943 Y114.479 E22.20326
G1 X58.551 Y109.228 E22.38619
G1 X59.858 Y103.897 E22.56902
G1 X60.385 Y101.266 E22.6584
G1 X61.237 Y95.833 E22.84159
G1 X61.777 Y90.393 E23.02369
G1 X62.009 Y84.931 E23.2058
G1 X61.931 Y79.45 E23.38839
G1 X61.545 Y73.998 E23.57045
G1 X60.848 Y68.555 E23.75324
G1 X59.85 Y63.189 E23.93505
G1 X58.437 Y57.468 E24.13134
G1 X58.354 Y56.966 E24.14829
G1 X58.342 Y56.69 E24.15749
G1 X58.338 Y38.54 E24.76208
G1 X58.378 Y38.032 E24.77905
G1 X58.497 Y37.536 E24.79604
G1 X58.691 Y37.065 E24.81301
G1 X58.957 Y36.631 E24.82997
G1 F600 E23.32997
;MESH:
G0 F2625 X78.058 Y36.631
G0 X79.493 Y36.631
G0 X86.2 Y32.864
G0 X86.706 Y32.709
G0 X87.195 Y32.662
G0 X95.651 Y32.662
G0 X96.139 Y32.709
G0 X96.646 Y32.864
G0 X97.023 Y33.064
G0 X97.908 Y33.823
G0 X97.825 Y33.878
;TYPE:WALL-INNER
G1 F600 E24.82997
G1 F900 X97.493 Y33.475 E24.84736
G1 X97.091 Y33.145 E24.86468
G1 X96.631 Y32.9 E24.88204
G1 X96.132 Y32.748 E24.89942
G1 X95.65 Y32.701 E24.91555
G1 X87.196 Y32.701 E25.19716
G1 X86.713 Y32.748 E25.21332
G1 X86.215 Y32.9 E25.23067
G1 X85.754 Y33.145 E25.24806
G1 X85.352 Y33.476 E25.2654
G1 X85.021 Y33.878 E25.28275
G1 X84.776 Y34.339 E25.30014
G1 X84.624 Y34.837 E25.31748
G1 X84.577 Y35.32 E25.33365
G1 X84.577 Y41.742 E25.54757
G1 X84.624 Y42.224 E25.5637
G1 X84.776 Y42.723 E25.58107
G1 X85.021 Y43.183 E25.59843
G1 X85.351 Y43.585 E25.61576
G1 X85.754 Y43.917 E25.63315
G1 X86.215 Y44.162 E25.65054
G1 X86.713 Y44.313 E25.66788
G1 X87.195 Y44.361 E25.68401
G1 X95.651 Y44.361 E25.96568
G1 X96.132 Y44.313 E25.98179
G1 X96.631 Y44.162 E25.99915
G1 X97.091 Y43.917 E26.01651
G1 X97.494 Y43.586 E26.03388
G1 X97.825 Y43.183 E26.05126
G1 X98.07 Y42.723 E26.06862
G1 X98.221 Y42.224 E26.08598
G1 X98.269 Y41.743 E26.10208
G1 X98.269 Y35.319 E26.31607
G1 X98.221 Y34.837 E26.3322
G1 X98.07 Y34.339 E26.34954
G1 X97.825 Y33.878 E26.36693
G0 F2625 X97.908 Y33.823
G0 X103.303 Y39.353
G0 X103.373 Y39.283
G1 F900 X120.518 Y39.283 E26.93804
G1 X120.518 Y56.452 E27.50994
G1 X119.687 Y57.744 E27.56111
G1 X118.639 Y59.202 E27.62092
G1 X117.565 Y60.545 E27.6782
G1 X116.389 Y61.869 E27.73719
G1 X115.154 Y63.125 E27.79587
G1 X113.853 Y64.317 E27.85464
G1 X112.512 Y65.426 E27.91261
G1 X111.093 Y66.479 E27.97147
G1 X109.645 Y67.444 E28.02943
G1 X108.101 Y68.362 E28.08927
G1 X106.581 Y69.162 E28.14648
G1 X104.96 Y69.912 E28.20598
G1 X103.333 Y70.565 E28.26438
G1 X102.98 Y70.686 E28.27681
G1 X102.65 Y70.799 E28.28843
G1 X102.65 Y70.451 E28.2953
G1 X102.65 Y70.45 E28.29534
G1 X102.65 Y62.104 E28.57335
G1 X102.601 Y61.085 E28.60733
G1 X102.455 Y60.057 E28.64192
G1 X102.209 Y59.047 E28.67654
G1 X101.87 Y58.067 E28.71108
G1 X101.438 Y57.122 E28.7457
G1 X100.919 Y56.224 E28.78025
G1 X100.317 Y55.376 E28.81489
G1 X99.636 Y54.593 E28.84945
G1 X98.886 Y53.876 E28.88402
G1 X98.069 Y53.234 E28.91863
G1 X97.195 Y52.673 E28.95322
G1 X96.273 Y52.197 E28.98779
G1 X95.309 Y51.812 E29.02236
G1 X94.313 Y51.519 E29.05695
G1 X93.293 Y51.322 E29.09155
G1 X92.26 Y51.223 E29.12612
G1 X91.221 Y51.223 E29.16073
G1 X90.187 Y51.322 E29.19533
G1 X89.168 Y51.519 E29.2299
G1 X88.171 Y51.812 E29.26451
G1 X87.208 Y52.197 E29.29906
G1 X86.285 Y52.673 E29.33365
G1 X85.412 Y53.234 E29.36822
G1 X84.595 Y53.876 E29.40283
G1 X83.844 Y54.593 E29.43742
G1 X83.164 Y55.376 E29.47196
G1 X82.561 Y56.224 E29.50662
G1 X82.043 Y57.122 E29.54116
G1 X81.611 Y58.067 E29.57577
G1 X81.272 Y59.047 E29.61031
G1 X81.026 Y60.057 E29.64494
G1 X80.879 Y61.084 E29.6795
G1 X80.83 Y62.104 E29.71351
G1 X80.83 Y70.673 E29.99895
G1 X80.83 Y70.674 E29.99898
G1 X80.83 Y71.015 E30.01034
G1 X80.505 Y70.911 E30.01711
G1 X80.192 Y70.81 E30.02807
G1 X78.613 Y70.215 E30.08428
G1 X77.058 Y69.542 E30.14072
G1 X75.571 Y68.81 E30.19593
G1 X74.07 Y67.975 E30.25314
G1 X72.673 Y67.105 E30.30796
G1 X71.266 Y66.13 E30.36498
G1 X69.941 Y65.113 E30.42062
G1 X68.642 Y64.008 E30.47743
G1 X67.441 Y62.88 E30.53231
G1 X66.247 Y61.643 E30.58958
G1 X65.148 Y60.387 E30.64518
G1 X64.11 Y59.074 E30.70093
G1 X63.128 Y57.699 E30.75721
G1 X62.328 Y56.452 E30.80656
G1 X62.328 Y39.283 E31.37847
G1 X79.473 Y39.283 E31.94957
G1 X79.473 Y28.613 E32.305
G1 X103.373 Y28.613 E33.10111
G1 X103.373 Y39.283 E33.45653
G0 F2625 X103.873 Y38.783
;TYPE:WALL-OUTER
G1 F900 X121.018 Y38.783 E34.02764
G1 X121.018 Y56.599 E34.6211
G1 X120.093 Y58.036 E34.67802
G1 X119.045 Y59.494 E34.73784
G1 X117.939 Y60.877 E34.79682
G1 X116.746 Y62.22 E34.85666
G1 X115.505 Y63.482 E34.91562
G1 X114.191 Y64.686 E34.97498
G1 X112.816 Y65.822 E35.0344
G1 X111.378 Y66.89 E35.09406
G1 X109.901 Y67.874 E35.15318
G1 X108.357 Y68.792 E35.21301
G1 X106.791 Y69.616 E35.27196
G1 X105.164 Y70.369 E35.33168
G1 X103.506 Y71.034 E35.39118
G1 X102.481 Y71.386 E35.42728
G1 X102.15 Y71.499 E35.43893
G1 X102.15 Y71.15 E35.44583
G1 X102.15 Y71.149 E35.44586
G1 X102.15 Y62.116 E35.74676
G1 X102.103 Y61.132 E35.77957
G1 X101.963 Y60.152 E35.81255
G1 X101.729 Y59.188 E35.84559
G1 X101.405 Y58.253 E35.87855
G1 X100.993 Y57.351 E35.91158
G1 X100.498 Y56.494 E35.94455
G1 X99.924 Y55.686 E35.97757
G1 X99.274 Y54.938 E36.01057
G1 X98.558 Y54.254 E36.04356
G1 X97.779 Y53.642 E36.07656
G1 X96.945 Y53.106 E36.10958
G1 X96.065 Y52.652 E36.14257
G1 X95.145 Y52.285 E36.17556
G1 X94.195 Y52.005 E36.20855
G1 X93.222 Y51.817 E36.24156
G1 X92.236 Y51.723 E36.27455
G1 X91.245 Y51.723 E36.30756
G1 X90.258 Y51.817 E36.34059
G1 X89.286 Y52.005 E36.37357
G1 X88.335 Y52.285 E36.40659
G1 X87.416 Y52.652 E36.43955
G1 X86.535 Y53.106 E36.47257
G1 X85.702 Y53.642 E36.50556
G1 X84.923 Y54.254 E36.53856
G1 X84.206 Y54.938 E36.57157
G1 X83.557 Y55.686 E36.60456
G1 X82.982 Y56.494 E36.63759
G1 X82.488 Y57.351 E36.67054
G1 X82.076 Y58.253 E36.70357
G1 X81.752 Y59.188 E36.73654
G1 X81.518 Y60.152 E36.76958
G1 X81.377 Y61.132 E36.80256
G1 X81.33 Y62.116 E36.83537
G1 X81.33 Y71.358 E37.14323
G1 X81.33 Y71.359 E37.14326
G1 X81.33 Y71.7 E37.15462
G1 X81.005 Y71.596 E37.1614
G1 X80.027 Y71.282 E37.19561
G1 X78.42 Y70.677 E37.25281
G1 X76.859 Y70.001 E37.30947
