;Generated by Cura LulzBot Edition GCodeWriter Version: 3.6.20
;FLAVOR:Marlin
;TIME:9028
;Filament used: 7.3142m
;Layer height: 0.38
;Generated with Cura_SteamEngine 3.6.20
M82 ;absolute extrusion mode
;This G-Code has been generated specifically for the LulzBot TAZ 6 with standard extruder
M73 P0 ; clear GLCD progress bar
M75 ; start GLCD timer
G26 ; clear potential 'probe fail' condition
M107 ; disable fans
M420 S0 ; disable previous leveling matrix
G90 ; absolute positioning
M82 ; set extruder to absolute mode
G92 E0 ; set extruder position to 0
M140 S60.0 ; start bed heating up
M109 R140 ; soften filament before homing Z
G28 ; Home all axis
G1 E-30 F100 ; retract filament
M109 R140 ; wait for extruder to reach wiping temp
G1 X-15 Y100 F3000 ; move above wiper pad
G1 Z1 ; push nozzle into wiper
G1 X-17 Y95 F1000 ; slow wipe
G1 X-17 Y90 F1000 ; slow wipe
G1 X-17 Y85 F1000 ; slow wipe
G1 X-15 Y90 F1000 ; slow wipe
G1 X-17 Y80 F1000 ; slow wipe
G1 X-15 Y95 F1000 ; slow wipe
G1 X-17 Y75 F2000 ; fast wipe
G1 X-15 Y65 F2000 ; fast wipe
G1 X-17 Y70 F2000 ; fast wipe
G1 X-15 Y60 F2000 ; fast wipe
G1 X-17 Y55 F2000 ; fast wipe
G1 X-15 Y50 F2000 ; fast wipe
G1 X-17 Y40 F2000 ; fast wipe
G1 X-15 Y45 F2000 ; fast wipe
G1 X-17 Y35 F2000 ; fast wipe
G1 X-15 Y40 F2000 ; fast wipe
G1 X-17 Y70 F2000 ; fast wipe
G1 X-15 Y30 Z2 F2000 ; fast wipe
G1 X-17 Y35 F2000 ; fast wipe
G1 X-15 Y25 F2000 ; fast wipe
G1 X-17 Y30 F2000 ; fast wipe
G1 X-15 Y25 Z1.5 F1000 ; slow wipe
G1 X-17 Y23 F1000 ; slow wipe
G1 Z10 ; raise extruder
M109 R140 ; wait for extruder to reach probe temp
G1 X-9 Y-9 ; move above first probe point
M204 S100 ; set probing acceleration
G29 ; start auto-leveling sequence
M420 S1 ; activate bed level matrix
M425 Z			     ; use measured Z backlash for compensation
M425 Z F0		     ; turn off measured Z backlash compensation. (if activated in the quality settings, this command will automatically be ignored)
M204 S500 ; restore standard acceleration
G1 X0 Y0 Z15 F5000 ; move up off last probe point
G4 S1 ; pause
M400 ; wait for moves to finish
M117 Heating... ; progress indicator message on LCD
M109 R210 ; wait for extruder to reach printing temp
M190 R60.0 ; wait for bed to reach printing temp
G1 Z2 E0 F75 ; prime tiny bit of filament into the nozzle
M117 TAZ 6 Printing... ; progress indicator message on LCD

M221 S100 T0
G92 E0
G1 F600 E-1.5
;LAYER_COUNT:101
;LAYER:0
M107
G0 F2625 X93.259 Y96.862 Z0.425
;TYPE:SKIRT
G1 F600 E0
G1 F900 X93.646 Y96.53 E0.01698
G1 X94.081 Y96.264 E0.03397
G1 X94.551 Y96.068 E0.05093
G1 X95.046 Y95.949 E0.06789
G1 X95.559 Y95.908 E0.08503
G1 X184.441 Y95.909 E3.04572
G1 X184.949 Y95.949 E3.0627
G1 X185.444 Y96.068 E3.07966
G1 X185.915 Y96.263 E3.09664
G1 X186.35 Y96.529 E3.11362
G1 X186.737 Y96.859 E3.13056
G1 X187.069 Y97.246 E3.14755
G1 X187.335 Y97.681 E3.16453
G1 X187.531 Y98.151 E3.1815
G1 X187.65 Y98.646 E3.19845
G1 X187.691 Y99.159 E3.2156
G1 X187.691 Y174.916 E5.73909
G1 X187.651 Y175.424 E5.75606
G1 X187.532 Y175.919 E5.77302
G1 X187.337 Y176.39 E5.79
G1 X187.071 Y176.825 E5.80699
G1 X186.741 Y177.212 E5.82393
G1 X186.354 Y177.544 E5.84091
G1 X185.919 Y177.81 E5.8579
G1 X185.449 Y178.006 E5.87486
G1 X184.954 Y178.125 E5.89182
G1 X184.508 Y178.165 E5.90673
G1 X176.391 Y178.332 E6.17717
G1 X170.95 Y178.794 E6.35907
G1 X165.549 Y179.564 E6.54079
G1 X160.125 Y180.652 E6.72507
G1 X157.555 Y181.282 E6.81321
G1 X154.905 Y182.01 E6.90475
G1 X147.148 Y184.558 E7.17672
G1 X146.653 Y184.678 E7.19369
G1 X146.133 Y184.72 E7.21107
G1 X133.715 Y184.715 E7.62472
G1 X133.207 Y184.675 E7.64169
G1 X132.665 Y184.54 E7.6603
G1 X126.412 Y182.403 E7.88041
G1 X121.152 Y180.955 E8.06214
G1 X115.765 Y179.795 E8.2457
G1 X113.117 Y179.343 E8.33518
G1 X107.671 Y178.649 E8.51806
G1 X102.216 Y178.263 E8.70022
G1 X95.512 Y178.165 E8.92356
G1 X95.004 Y178.117 E8.94055
G1 X94.511 Y177.991 E8.9575
G1 X94.043 Y177.79 E8.97447
G1 X93.612 Y177.517 E8.99146
G1 X93.229 Y177.181 E9.00844
G1 X92.904 Y176.789 E9.0254
G1 X92.644 Y176.351 E9.04236
G1 X92.455 Y175.878 E9.05933
G1 X92.343 Y175.381 E9.0763
G1 X92.309 Y174.915 E9.09187
G1 X92.309 Y99.158 E11.61536
G1 X92.349 Y98.65 E11.63233
G1 X92.468 Y98.155 E11.64929
G1 X92.663 Y97.684 E11.66627
G1 X92.929 Y97.249 E11.68326
G1 X93.259 Y96.862 E11.7002
G1 F600 E10.2002
G0 F2625 X94.889 Y175.053
G0 X95.422 Y175.586
G0 X133.7 Y176.675
;TYPE:SUPPORT
G1 F600 E11.7002
G1 F900 X146.3 Y176.675 E12.11991
G1 X146.3 Y181.108 E12.26757
G1 X146.183 Y181.225 E12.27308
G1 X133.817 Y181.225 E12.685
G1 X133.7 Y181.108 E12.69051
G1 X133.7 Y176.675 E12.83818
G1 F600 E11.33818
G0 F2625 X135.027 Y176.875
G1 F600 E12.83818
G1 F900 X135.027 Y181.025 E12.97641
G1 F600 E11.47641
G0 F2625 X133.9 Y180.036
G1 F600 E12.97641
G1 F900 X146.1 Y180.036 E13.3828
G1 F600 E11.8828
G0 F2625 X145.029 Y181.025
G1 F600 E13.3828
G1 F900 X145.029 Y176.875 E13.52104
G1 F600 E12.02104
G0 F2625 X143.362 Y176.875
G1 F600 E13.52104
G1 F900 X143.362 Y181.025 E13.65928
G1 F600 E12.15928
G0 F2625 X141.695 Y181.025
G1 F600 E13.65928
G1 F900 X141.695 Y176.875 E13.79752
G1 F600 E12.29752
G0 F2625 X140.028 Y176.875
G1 F600 E13.79752
G1 F900 X140.028 Y181.025 E13.93575
G1 F600 E12.43575
G0 F2625 X138.361 Y181.025
G1 F600 E13.93575
G1 F900 X138.361 Y176.875 E14.07399
G1 F600 E12.57399
G0 F2625 X136.694 Y176.875
G1 F600 E14.07399
G1 F900 X136.694 Y181.025 E14.21223
G1 F600 E12.71223
G0 F2625 X133.9 Y178.369
G1 F600 E14.21223
G1 F900 X146.1 Y178.369 E14.61862
G1 F600 E13.11862
;MESH:
G0 F2625 X146.1 Y175.59
G0 X146.1 Y174.155
G0 X183.63 Y174.105
G0 X183.7 Y174.175
;TYPE:WALL-INNER
G1 F600 E14.61862
G1 F900 X96.3 Y174.175 E17.52994
G1 X96.3 Y99.899 E20.0041
G1 X183.7 Y99.899 E22.91543
G1 X183.7 Y174.175 E25.38959
G0 F2625 X184.2 Y174.675
;TYPE:WALL-OUTER
G1 F900 X95.8 Y174.675 E28.33422
G1 X95.8 Y99.399 E30.84169
G1 X184.2 Y99.399 E33.78633
G1 X184.2 Y174.675 E36.2938
G0 F2625 X183.95 Y174.675
G0 X183.63 Y174.105
G0 X183.21 Y173.685
;TYPE:SKIN
G1 F900 X96.79 Y173.685 E39.17248
G1 X96.79 Y100.389 E41.614
G1 X183.21 Y100.389 E44.49268
G1 X183.21 Y173.685 E46.9342
G0 F2625 X182.984 Y100.959
G1 F900 X182.637 Y100.613 E46.95052
G0 F2625 X181.93 Y100.613
G1 F900 X182.984 Y101.667 E47.00017
G0 F2625 X182.984 Y102.374
G1 F900 X181.223 Y100.613 E47.08313
G0 F2625 X180.516 Y100.613
G1 F900 X182.984 Y103.081 E47.19939
G0 F2625 X182.984 Y103.788
G1 F900 X179.809 Y100.613 E47.34896
G0 F2625 X179.102 Y100.613
G1 F900 X182.984 Y104.495 E47.53183
G0 F2625 X182.984 Y105.202
G1 F900 X178.395 Y100.613 E47.74801
G0 F2625 X177.688 Y100.613
G1 F900 X182.984 Y105.909 E47.99749
G0 F2625 X182.984 Y106.616
G1 F900 X176.981 Y100.613 E48.28028
G0 F2625 X176.273 Y100.613
G1 F900 X182.984 Y107.323 E48.5964
G0 F2625 X182.984 Y108.031
G1 F900 X175.566 Y100.613 E48.94585
G0 F2625 X174.859 Y100.613
G1 F900 X182.984 Y108.738 E49.3286
G0 F2625 X182.984 Y109.445
G1 F900 X174.152 Y100.613 E49.74466
G0 F2625 X173.445 Y100.613
G1 F900 X182.984 Y110.152 E50.19402
G0 F2625 X182.984 Y110.859
G1 F900 X172.738 Y100.613 E50.67669
G0 F2625 X172.031 Y100.613
G1 F900 X182.984 Y111.566 E51.19266
G0 F2625 X182.984 Y112.273
G1 F900 X171.324 Y100.613 E51.74194
G0 F2625 X170.617 Y100.613
G1 F900 X182.984 Y112.98 E52.32452
G0 F2625 X182.984 Y113.687
G1 F900 X169.909 Y100.613 E52.94044
G0 F2625 X169.202 Y100.613
G1 F900 X182.984 Y114.395 E53.58968
G0 F2625 X182.984 Y115.102
G1 F900 X168.495 Y100.613 E54.27223
G0 F2625 X167.788 Y100.613
G1 F900 X182.984 Y115.809 E54.98808
G0 F2625 X182.984 Y116.516
G1 F900 X167.081 Y100.613 E55.73724
G0 F2625 X166.374 Y100.613
G1 F900 X182.984 Y117.223 E56.5197
G0 F2625 X182.984 Y117.93
G1 F900 X165.667 Y100.613 E57.33547
G0 F2625 X164.96 Y100.613
G1 F900 X182.984 Y118.637 E58.18454
G0 F2625 X182.984 Y119.344
G1 F900 X164.253 Y100.613 E59.06692
G0 F2625 X163.546 Y100.613
G1 F900 X182.984 Y120.051 E59.98261
G0 F2625 X182.984 Y120.758
G1 F900 X162.838 Y100.613 E60.93162
G0 F2625 X162.131 Y100.613
G1 F900 X182.984 Y121.466 E61.91396
G0 F2625 X182.984 Y122.173
G1 F900 X161.424 Y100.613 E62.92961
G0 F2625 X160.717 Y100.613
G1 F900 X182.984 Y122.88 E63.97856
G0 F2625 X182.984 Y123.587
G1 F900 X160.01 Y100.613 E65.06082
G0 F2625 X159.303 Y100.613
G1 F900 X182.984 Y124.294 E66.17639
G0 F2625 X182.984 Y125.001
G1 F900 X158.596 Y100.613 E67.32525
G0 F2625 X157.889 Y100.613
G1 F900 X182.984 Y125.708 E68.50743
G0 F2625 X182.984 Y126.415
G1 F900 X157.182 Y100.613 E69.72291
G0 F2625 X156.474 Y100.613
G1 F900 X182.984 Y127.122 E70.97172
G0 F2625 X182.984 Y127.83
G1 F900 X155.767 Y100.613 E72.25385
G0 F2625 X155.06 Y100.613
G1 F900 X182.984 Y128.537 E73.5693
G0 F2625 X182.984 Y129.244
G1 F900 X154.353 Y100.613 E74.91805
G0 F2625 X153.646 Y100.613
G1 F900 X182.984 Y129.951 E76.3001
G0 F2625 X182.984 Y130.658
G1 F900 X152.939 Y100.613 E77.71546
G0 F2625 X152.232 Y100.613
G1 F900 X182.984 Y131.365 E79.16412
G0 F2625 X182.984 Y132.072
G1 F900 X151.525 Y100.613 E80.64609
G0 F2625 X150.818 Y100.613
G1 F900 X182.984 Y132.779 E82.16137
G0 F2625 X182.984 Y133.486
G1 F900 X150.11 Y100.613 E83.70997
G0 F2625 X149.403 Y100.613
G1 F900 X182.984 Y134.194 E85.2919
G0 F2625 X182.984 Y134.901
G1 F900 X148.696 Y100.613 E86.90714
G0 F2625 X147.989 Y100.613
G1 F900 X182.984 Y135.608 E88.55568
G0 F2625 X182.984 Y136.315
G1 F900 X147.282 Y100.613 E90.23753
G0 F2625 X146.575 Y100.613
G1 F900 X182.984 Y137.022 E91.95269
G0 F2625 X182.984 Y137.729
G1 F900 X145.868 Y100.613 E93.70114
G0 F2625 X145.161 Y100.613
G1 F900 X182.984 Y138.436 E95.48291
G0 F2625 X182.984 Y139.143
G1 F900 X144.454 Y100.613 E97.29798
G0 F2625 X143.747 Y100.613
G1 F900 X182.984 Y139.85 E99.14635
G0 F2625 X182.984 Y140.557
G1 F900 X143.039 Y100.613 E101.02806
G0 F2625 X142.332 Y100.613
G1 F900 X182.984 Y141.265 E102.94309
G0 F2625 X182.984 Y141.972
G1 F900 X141.625 Y100.613 E104.89143
G0 F2625 X140.918 Y100.613
G1 F900 X182.984 Y142.679 E106.87307
G0 F2625 X182.984 Y143.386
G1 F900 X140.211 Y100.613 E108.88802
G0 F2625 X139.504 Y100.613
G1 F900 X182.984 Y144.093 E110.93628
G0 F2625 X182.984 Y144.8
G1 F900 X138.797 Y100.613 E113.01784
G0 F2625 X138.09 Y100.613
G1 F900 X182.984 Y145.507 E115.1327
G0 F2625 X182.984 Y146.214
G1 F900 X137.383 Y100.613 E117.28087
G0 F2625 X136.675 Y100.613
G1 F900 X182.984 Y146.921 E119.46237
G0 F2625 X182.984 Y147.629
G1 F900 X135.968 Y100.613 E121.6772
G0 F2625 X135.261 Y100.613
G1 F900 X182.984 Y148.336 E123.92533
G0 F2625 X182.984 Y149.043
G1 F900 X134.554 Y100.613 E126.20677
G0 F2625 X133.847 Y100.613
G1 F900 X182.984 Y149.75 E128.52151
G0 F2625 X182.984 Y150.457
G1 F900 X133.14 Y100.613 E130.86956
G0 F2625 X132.433 Y100.613
G1 F900 X182.984 Y151.164 E133.25092
G0 F2625 X182.984 Y151.871
G1 F900 X131.726 Y100.613 E135.66558
G0 F2625 X131.019 Y100.613
G1 F900 X182.984 Y152.578 E138.11354
G0 F2625 X182.984 Y153.285
G1 F900 X130.312 Y100.613 E140.59481
G0 F2625 X129.604 Y100.613
G1 F900 X182.984 Y153.993 E143.10944
G0 F2625 X182.984 Y154.7
G1 F900 X128.897 Y100.613 E145.65737
G0 F2625 X128.19 Y100.613
G1 F900 X182.984 Y155.407 E148.2386
G0 F2625 X182.984 Y156.114
G1 F900 X127.483 Y100.613 E150.85314
G0 F2625 X126.776 Y100.613
G1 F900 X182.984 Y156.821 E153.50098
G0 F2625 X182.984 Y157.528
G1 F900 X126.069 Y100.613 E156.18213
G0 F2625 X125.362 Y100.613
G1 F900 X182.984 Y158.235 E158.89659
G0 F2625 X182.984 Y158.942
G1 F900 X124.655 Y100.613 E161.64435
G0 F2625 X123.948 Y100.613
G1 F900 X182.984 Y159.649 E164.42541
G0 F2625 X182.984 Y160.356
G1 F900 X123.24 Y100.613 E167.23981
G0 F2625 X122.533 Y100.613
G1 F900 X182.984 Y161.064 E170.08753
G0 F2625 X182.984 Y161.771
G1 F900 X121.826 Y100.613 E172.96856
G0 F2625 X121.119 Y100.613
G1 F900 X182.984 Y162.478 E175.8829
G0 F2625 X182.984 Y163.185
G1 F900 X120.412 Y100.613 E178.83053
G0 F2625 X119.705 Y100.613
G1 F900 X182.984 Y163.892 E181.81148
G0 F2625 X182.984 Y164.599
G1 F900 X118.998 Y100.613 E184.82573
G0 F2625 X118.291 Y100.613
G1 F900 X182.984 Y165.306 E187.87329
G0 F2625 X182.984 Y166.013
G1 F900 X117.584 Y100.613 E190.95415
G0 F2625 X116.876 Y100.613
G1 F900 X182.984 Y166.72 E194.06834
G0 F2625 X182.984 Y167.428
G1 F900 X116.169 Y100.613 E197.21585
G0 F2625 X115.462 Y100.613
G1 F900 X182.984 Y168.135 E200.39668
G0 F2625 X182.984 Y168.842
G1 F900 X114.755 Y100.613 E203.61081
G0 F2625 X114.048 Y100.613
G1 F900 X182.984 Y169.549 E206.85824
G0 F2625 X182.984 Y170.256
G1 F900 X113.341 Y100.613 E210.13898
G0 F2625 X112.634 Y100.613
G1 F900 X182.984 Y170.963 E213.45303
G0 F2625 X182.984 Y171.67
G1 F900 X111.927 Y100.613 E216.80038
G0 F2625 X111.22 Y100.613
G1 F900 X182.984 Y172.377 E220.18103
G0 F2625 X182.984 Y173.084
G1 F900 X110.513 Y100.613 E223.59499
G0 F2625 X109.805 Y100.613
G1 F900 X182.651 Y173.458 E227.0266
G0 F2625 X181.944 Y173.458
G1 F900 X109.098 Y100.613 E230.4582
G0 F2625 X108.391 Y100.613
G1 F900 X181.237 Y173.458 E233.8898
G0 F2625 X180.53 Y173.458
G1 F900 X107.684 Y100.613 E237.32141
G0 F2625 X106.977 Y100.613
G1 F900 X179.822 Y173.458 E240.75299
G0 F2625 X179.115 Y173.458
G1 F900 X106.27 Y100.613 E244.18457
G0 F2625 X105.563 Y100.613
G1 F900 X178.408 Y173.458 E247.61615
G0 F2625 X177.701 Y173.458
G1 F900 X104.856 Y100.613 E251.04773
G0 F2625 X104.149 Y100.613
G1 F900 X176.994 Y173.458 E254.47931
G0 F2625 X176.287 Y173.458
G1 F900 X103.441 Y100.613 E257.91091
G0 F2625 X102.734 Y100.613
G1 F900 X175.58 Y173.458 E261.34251
G0 F2625 X174.873 Y173.458
G1 F900 X102.027 Y100.613 E264.77411
G0 F2625 X101.32 Y100.613
G1 F900 X174.166 Y173.458 E268.20572
G0 F2625 X173.458 Y173.458
G1 F900 X100.613 Y100.613 E271.6373
G0 F2625 X99.906 Y100.613
G1 F900 X172.751 Y173.458 E275.06888
G0 F2625 X172.044 Y173.458
G1 F900 X99.199 Y100.613 E278.50046
G0 F2625 X98.492 Y100.613
G1 F900 X171.337 Y173.458 E281.93204
G0 F2625 X170.63 Y173.458
G1 F900 X97.785 Y100.613 E285.36362
G0 F2625 X97.077 Y100.613
G1 F900 X169.923 Y173.458 E288.79522
G0 F2625 X169.216 Y173.458
G1 F900 X97.015 Y101.257 E292.19646
G0 F2625 X97.015 Y101.964
G1 F900 X168.509 Y173.458 E295.5644
G0 F2625 X167.802 Y173.458
G1 F900 X97.015 Y102.671 E298.89903
G0 F2625 X97.015 Y103.379
G1 F900 X167.094 Y173.458 E302.20031
G0 F2625 X166.387 Y173.458
G1 F900 X97.015 Y104.086 E305.46828
G0 F2625 X97.015 Y104.793
G1 F900 X165.68 Y173.458 E308.70295
G0 F2625 X164.973 Y173.458
G1 F900 X97.015 Y105.5 E311.90431
G0 F2625 X97.015 Y106.207
G1 F900 X164.266 Y173.458 E315.07237
G0 F2625 X163.559 Y173.458
G1 F900 X97.015 Y106.914 E318.20712
G0 F2625 X97.015 Y107.621
G1 F900 X162.852 Y173.458 E321.30857
G0 F2625 X162.145 Y173.458
G1 F900 X97.015 Y108.328 E324.37671
G0 F2625 X97.015 Y109.035
G1 F900 X161.438 Y173.458 E327.41155
G0 F2625 X160.731 Y173.458
G1 F900 X97.015 Y109.742 E330.41308
G0 F2625 X97.015 Y110.45
G1 F900 X160.023 Y173.458 E333.38126
G0 F2625 X159.316 Y173.458
G1 F900 X97.015 Y111.157 E336.31613
G0 F2625 X97.015 Y111.864
G1 F900 X158.609 Y173.458 E339.2177
G0 F2625 X157.902 Y173.458
G1 F900 X97.015 Y112.571 E342.08596
G0 F2625 X97.015 Y113.278
G1 F900 X157.195 Y173.458 E344.92092
G0 F2625 X156.488 Y173.458
G1 F900 X97.015 Y113.985 E347.72257
G0 F2625 X97.015 Y114.692
G1 F900 X155.781 Y173.458 E350.49092
G0 F2625 X155.074 Y173.458
G1 F900 X97.015 Y115.399 E353.22596
G0 F2625 X97.015 Y116.106
G1 F900 X154.367 Y173.458 E355.92769
G0 F2625 X153.659 Y173.458
G1 F900 X97.015 Y116.814 E358.59608
G0 F2625 X97.015 Y117.521
G1 F900 X152.952 Y173.458 E361.23116
G0 F2625 X152.245 Y173.458
G1 F900 X97.015 Y118.228 E363.83293
G0 F2625 X97.015 Y118.935
G1 F900 X151.538 Y173.458 E366.4014
G0 F2625 X150.831 Y173.458
G1 F900 X97.015 Y119.642 E368.93656
G0 F2625 X97.015 Y120.349
